!!!COM: Scriabin, Alexander
!!!OTL@@FR: Prélude en sol dièse majeur
!!!OTL@@EN: Prelude in G# Major
!!!OPR@@FR: 24 Préludes
!!!OPR@@EN: 24 Preludes
!!!OPS: 11
!!!ONM: 12
!!!ODT: 1895
!!!AGN: Prelude
**kern	**kern	**dynam
*staff2	*staff1	*staff1/2
*Ipiano	*Ipiano	*
*clefF4	*clefG2	*
*k[f#c#g#d#a#]	*k[f#c#g#d#a#]	*
*g#:	*g#:	*
*M9/8	*M9/8	*
*	*^	*
8r	8ryy	8g#L	.
8r	8ryy	8a#J	.
4r	8ryy	8dd#L	.
.	[4d#	8d#	.
8r	.	[8bJ	.
=1	=1	=1	=1
8GGG#L 8GG#	4.d#]	4.d# 4.b] 4.ff#	.
8D#	.	.	.
8BJ	.	.	.
8f#	8rc	8raa	.
8r	8ryy	8g#L	.
8r	8ryy	8a#J	.
4r	8ryy	8dd#L	.
.	4d#	8d#	.
8r	.	[8bJ	.
*	*v	*v	*
=2	=2	=2
8GGG#L 8GG#	4.c# 4.b] 4.ee	.
8C#	.	.
8BJ	.	.
8e	8r	.
8r	8g#L	.
8r	8a#J	.
4r	8cc#L	.
.	8e	.
8r	8bJ	.
=3	=3	=3
*	*^	*
8GG#L	4.ryy	8a#L	.
8E	.	8b	.
8BJ	.	8c#J	.
8g#	4.ryy	8bL	.
8r	.	8g#	.
8r	.	8a#J	.
4r	8ryy	8bL	.
.	[4e	8e	.
8r	.	[8g#J	.
=4	=4	=4	=4
8GGG#L 8GG#	4.e]	4.e 4.g#] 4.dd#	.
8C#	.	.	.
8BJ	.	.	.
8g#L	8rc	8raa	.
8c#	8ryy	8g#L	.
8EJ	8ryy	8a#J	.
4GG#	8ryy	8cc#L	.
.	4e	8e	.
8r	.	[8bJ	.
=5	=5	=5	=5
8GGG#L 8GG#	4.d#	4.d# 4.b] 4.ff#	.
8D#	.	.	.
8BJ	.	.	.
8f#	8rc	8raa	.
8r	8ryy	8g#L	.
8r	8ryy	8a#J	.
4r	8ryy	8dd#L	.
.	[4d#	8d#	.
8r	.	[8bJ	.
*	*v	*v	*
=6	=6	=6
8GGG##XL 8GG##X	4.d#] 4.b] 4.ee#X	.
8E#X	.	.
8BJ	.	.
8d#	8r	.
8r	8e#XL	.
8r	8bJ	.
4r	8dd#L	.
.	8d#	.
8r	8bJ	.
=7	=7	=7
8AAA#L 8AA#	8a#L	.
8F#	8b	.
8G#XJ	8d#J	.
8d#L	8bL	.
8B	8d#	.
8E#XJ	8e#XJ	.
8AA#L	8g#L	.
8F#	8c##X	.
8AA#J	8f#J	.
=8	=8	=8
8DD#L	4.dd#	.
8BB	.	.
8F#J	.	.
8G#	4r	.
8D#L	.	.
8E#XJ	8r	.
8A#L	4r	.
8AA#	.	.
8F#J	8r	.
=9	=9	=9
8.c#L	8.r	.
8.B#X	8.f# 8.a#	.
8.Bn	8.e#XL 8.dd#	.
8.A#	[8.f#J [8.cc#	.
8.G#	8.f#L] 8.cc#] 8.dd#	.
8.GnJ	8.c#J 8.b 8.ee#X	.
=10	=10	=10
*	*^	*
8.F#L	4.b	4.c# 4.ff#	.
8.c#J	.	.	.
*clefG2	*	*	*
8cc#	8a#	8ryy	.
*clefF4	*	*	*
8F#L	8rc	8raa	.
8G#XJ	8rc	8raa	.
8c#L	4rc	4raa	.
8C#	.	.	.
8AnJ	8rc	8raa	.
*	*v	*v	*
=11	=11	=11
8.eL	8.r	.
8.d#	8.an 8.cc#	.
8.dn	8.g#L 8.ff#	.
8.c#	[8.aJ [8.ee	.
8.F#	8.aL] 8.ee] 8.aan	.
8.BJ	8.aJ 8.dd#X 8.bb	.
=12	=12	=12
8.EL	4.g# 4.ee 4.bb	.
8.BJ	.	.
32%3g#L	8r	.
32%3EE	.	.
.	8ff#L	.
32%3BB	.	.
.	8eeJ	.
32%3G#J	.	.
8dnL	8bL	.
8g#	8e	.
8EEJ	8a#XJ	.
=13	=13	=13
8AA#L	8c#L	.
8G#	8g#	.
8c#J	8dd#XJ	.
32%3g#L	8cc#L	.
32%3EE	.	.
.	8ee	.
32%3BB	.	.
.	8dd#J	.
32%3F#J	.	.
8AnL	8f#L	.
8d#	8B	.
8EEJ	8g#J	.
=14	=14	=14
8.BBL	8G#L	.
.	8dn	.
8.G#J	.	.
.	8cc#J	.
8.dnL	8bL	.
.	8a#X	.
8.EEJ	.	.
.	8g#J	.
8AA#L	8c##XL	.
8G#	8A#	.
8DD#XJ	8BJ	.
=15	=15	=15
*	*^	*
8BBL	[4.G#	8G#L	.
8E	.	8B	.
8BBJ	.	8f#J	.
8B	8G#] 8e	8e	.
8DD#L 8AA#	8ryy	8F##XL 8d#	.
8GG#J 8E	8ryy	8G#J 8B	.
8DD#L 8AA#	8ryy	8F##L 8d#	.
8DD# 8AA#	8ryy	8d# 8a#	.
8GG#J 8E	8ryy	8BJ 8g#	.
*	*v	*v	*
=16	=16	=16
4DD# 4AA#	4F##X 4d#	.
8GG# 8D#	8G# 8B	.
8.GGG#	32%3r	.
.	32%3gg#L	.
16EELL	32%3ff#X	.
16BB	.	.
.	32%3eeJ	.
16G#JJ	.	.
8dnL	8bL	.
8g#	8e	.
8EEJ	8a#J	.
=17	=17	=17
8AA#L	8c#L	.
8G#	8g#	.
8c#J	8dd#J	.
8.g#L	32%3cc#L	.
.	32%3ff#	.
16EEL	32%3ee	.
16BB	.	.
.	32%3dd#XJ	.
16F#JJ	.	.
8AnL	8f#L	.
8d#	8B	.
8EEJ	8g#J	.
=18	=18	=18
8.BBL	8G#L	.
.	8dn	.
8.G#J	.	.
.	8cc#J	.
8.dnL	32%3bL	.
.	32%3b	.
8.EEJ	32%3a#X	.
.	32%3g#J	.
8AA#L	8c##XL	.
8G#	8A#	.
8DD#XJ	8BJ	.
=19	=19	=19
*	*^	*
8BBL	[4.G#	8G#L	.
8E	.	8B	.
8BBJ	.	8f#J	.
8B	8G#] 8e	8e	.
8DD#L 8AA#	8ryy	8F##XL 8d#	.
8GG#J 8E	8ryy	8G#J 8B	.
8DD#L 8AA#	8ryy	8F##L 8d#	.
8DD# 8AA#	8ryy	8d# 8a#	.
8GG#J 8E	8ryy	8BJ 8g#	.
*	*v	*v	*
=20	=20	=20
4DD# 4AA#	4F##X 4d#	.
8GG# 8D#	8G# 8B	.
8GGG#	8r	.
8DD#L 8AA#	8F##L 8d#	.
8GG#J 8E	8G#J 8B	.
8DD#L 8AA#	8F##L 8d#	.
8DD# 8AA#	8d# 8a#	.
8GG#J 8E	8BJ 8g#	.
=21	=21	=21
4DD# 4AA#	4F##X 4d#	.
8GG# 8E	8G# 8B	.
4DD# 4AA#	4F## 4d#	.
8GG# 8E	8G# 8B	.
4DD# 4AA#	4F## 4d#	.
8GG# 8E	8G# 8B	.
=22	=22	=22
2.GGG# 2.DD# 2.GG#	2.D# 2.G# 2.d#	.
4.r	4r	.
.	8r	.
==	==	==
*-	*-	*-
!!!system-decoration: {(*)}
!!!ENC: Bryan Jacob Bell
!!!END: November 2021 to April 2022
!!!PED: Günter Philipp
!!!PTL: Ausgewählte Klavierwerke (Edition Peters)
